X:530
T:No Name #3
M:2/4
L:1/16
Z:abc by Bruce Osborne - bosborne@kos.net
K:D
fe|d2B2 A2F2|A4 A2AB|d4 e2de|f2e2 egfe|!
d2B2 A2F2|A4 A2Bc|d4 e2de|f2d2 d2:|!
|:e2|f2e2 f2g2|a2a2 g2f2|e2b2 b2^a2|b2e2 egfe|!
d2B2 A2F2|A4 A2Bc|d4 e2de|f2d2 d2:|!
